icons/svg/pharmacy.svg

﻿<?xml version="1.0" encoding="utf-8"?>
<!DOCTYPE svg PUBLIC "-//W3C//DTD SVG 1.1//EN" "http://www.w3.org/Graphics/SVG/1.1/DTD/svg11.dtd">
<svg xmlns="http://www.w3.org/2000/svg" xmlns:xlink="http://www.w3.org/1999/xlink" version="1.1" baseProfile="full" width="24" height="24" viewBox="0 0 24.00 24.00" enable-background="new 0 0 24.00 24.00" xml:space="preserve">
	<path fill="#000000" fill-opacity="1" stroke-width="0.2" stroke-linejoin="round" d="M 15.9994,13.9981L 12.9994,13.9981L 12.9994,16.9981L 10.9994,16.9981L 10.9994,13.9981L 7.99939,13.9981L 7.99939,11.9981L 10.9994,11.9981L 10.9994,8.99807L 12.9994,8.99807L 12.9994,11.9981L 15.9994,11.9981M 20.9994,4.99807L 18.3544,4.99807L 19.4994,1.85306L 17.1504,0.998068L 15.6944,4.99807L 2.99939,4.99807L 2.99939,6.99807L 4.99939,12.9981L 2.99939,18.9981L 2.99939,20.9981L 20.9994,20.9981L 20.9994,18.9981L 18.9994,12.9981L 20.9994,6.99807L 20.9994,4.99807 Z "/>
</svg>

<svg xmlns="http://www.w3.org/2000/svg" version="1.1" baseProfile="full" width="24" height="24" viewBox="0 0 24.00 24.00" xml:space="preserve"><path fill="#000" fill-opacity="1" stroke-width=".2" stroke-linejoin="round" d="M16 13.998h-3v3h-2v-3H8v-2h3v-3h2v3h3m5-7h-2.646L19.5 1.853 17.15.998l-1.456 4H3v2l2 6-2 6v2h18v-2l-2-6 2-6v-2z"/></svg>
